app/img/main-block-image-2.svg

<svg width="64" height="64" viewBox="0 0 64 64" fill="none" xmlns="http://www.w3.org/2000/svg">
<rect width="64" height="64" rx="18" fill="white"/>
<path fill-rule="evenodd" clip-rule="evenodd" d="M46.7479 34.1151V46.0055C46.7479 48.1322 45.0812 49.875 43.0436 49.875H20.9797C18.9421 49.875 17.2754 48.1322 17.2754 46.0055V34.1151H28.7333V39.2788L32.0117 41.433L35.29 39.2788V34.1151H46.7479Z" fill="url(#paint0_linear)"/>
<path fill-rule="evenodd" clip-rule="evenodd" d="M29.8818 34.1151V38.6584L32.0118 40.0579L34.1417 38.6584V34.1151H29.8818Z" fill="url(#paint1_linear)"/>
<path fill-rule="evenodd" clip-rule="evenodd" d="M18.3011 20.4105H45.723C47.0172 20.4105 48.0749 21.5848 48.0749 23.0199V30.0689C48.0749 31.504 47.0172 32.6783 45.723 32.6783H34.9664H29.0577H18.3011C17.0069 32.6783 15.9492 31.504 15.9492 30.0689V23.0199C15.9492 21.5848 17.0069 20.4105 18.3011 20.4105Z" fill="url(#paint2_linear)"/>
<path fill-rule="evenodd" clip-rule="evenodd" d="M26.3021 14.0936H37.7212C38.7821 14.0936 39.6503 14.9618 39.6503 16.0227V19.0322H37.2045V17.2537C37.2045 16.7743 36.8125 16.3807 36.3331 16.3807H27.6902C27.2108 16.3807 26.8188 16.7743 26.8188 17.2537V19.0322H24.373V16.0227C24.373 14.9618 25.2412 14.0936 26.3021 14.0936Z" fill="url(#paint3_linear)"/>
<defs>
<linearGradient id="paint0_linear" x1="32.0117" y1="34.1151" x2="32.0117" y2="49.875" gradientUnits="userSpaceOnUse">
<stop stop-color="#EF8080"/>
<stop offset="1" stop-color="#F0145A"/>
</linearGradient>
<linearGradient id="paint1_linear" x1="32.0118" y1="34.1151" x2="32.0118" y2="40.0579" gradientUnits="userSpaceOnUse">
<stop stop-color="#EF8080"/>
<stop offset="1" stop-color="#F0145A"/>
</linearGradient>
<linearGradient id="paint2_linear" x1="32.012" y1="20.4105" x2="32.012" y2="32.6783" gradientUnits="userSpaceOnUse">
<stop stop-color="#EF8080"/>
<stop offset="1" stop-color="#F0145A"/>
</linearGradient>
<linearGradient id="paint3_linear" x1="32.0117" y1="14.0936" x2="32.0117" y2="19.0322" gradientUnits="userSpaceOnUse">
<stop stop-color="#EF8080"/>
<stop offset="1" stop-color="#F0145A"/>
</linearGradient>
</defs>
</svg>

<svg width="64" height="64" fill="none" xmlns="http://www.w3.org/2000/svg"><rect width="64" height="64" rx="18" fill="#fff"/><path fill-rule="evenodd" clip-rule="evenodd" d="M46.748 34.115v11.89c0 2.127-1.667 3.87-3.704 3.87H20.98c-2.038 0-3.705-1.743-3.705-3.87v-11.89h11.458v5.164l3.279 2.154 3.278-2.154v-5.164h11.458z" fill="url(#paint0_linear)"/><path fill-rule="evenodd" clip-rule="evenodd" d="M29.882 34.115v4.543l2.13 1.4 2.13-1.4v-4.543h-4.26z" fill="url(#paint1_linear)"/><path fill-rule="evenodd" clip-rule="evenodd" d="M18.301 20.41h27.422c1.294 0 2.352 1.175 2.352 2.61v7.049c0 1.435-1.058 2.61-2.352 2.61H18.301c-1.294 0-2.352-1.175-2.352-2.61v-7.05c0-1.434 1.058-2.608 2.352-2.608z" fill="url(#paint2_linear)"/><path fill-rule="evenodd" clip-rule="evenodd" d="M26.302 14.094h11.42c1.06 0 1.928.868 1.928 1.929v3.01h-2.445v-1.78a.875.875 0 00-.872-.872H27.69a.875.875 0 00-.871.873v1.778h-2.446v-3.01c0-1.06.868-1.928 1.93-1.928z" fill="url(#paint3_linear)"/><defs><linearGradient id="paint0_linear" x1="32.012" y1="34.115" x2="32.012" y2="49.875" gradientUnits="userSpaceOnUse"><stop stop-color="#EF8080"/><stop offset="1" stop-color="#F0145A"/></linearGradient><linearGradient id="paint1_linear" x1="32.012" y1="34.115" x2="32.012" y2="40.058" gradientUnits="userSpaceOnUse"><stop stop-color="#EF8080"/><stop offset="1" stop-color="#F0145A"/></linearGradient><linearGradient id="paint2_linear" x1="32.012" y1="20.41" x2="32.012" y2="32.678" gradientUnits="userSpaceOnUse"><stop stop-color="#EF8080"/><stop offset="1" stop-color="#F0145A"/></linearGradient><linearGradient id="paint3_linear" x1="32.012" y1="14.094" x2="32.012" y2="19.032" gradientUnits="userSpaceOnUse"><stop stop-color="#EF8080"/><stop offset="1" stop-color="#F0145A"/></linearGradient></defs></svg>
